assets/ai/ai-ssrn-square.svg

<svg xmlns="http://www.w3.org/2000/svg" width="100%" height="100%" viewBox="-75.52 -43.52 599.04 599.04"><path d="M 48 32 C 21.5 32 0 53.5 0 80 L 0 432 C 0 458.5 21.5 480 48 480 L 400 480 C 426.5 480 448 458.5 448 432 L 448 80 C 448 53.5 426.5 32 400 32 L 48 32 z M 105.1543 192.55859 C 113.29893 192.55858 115.22827 193.20071 126.58789 197.91602 C 127.23088 198.1304 127.87017 198.34375 128.29883 198.34375 C 129.37049 198.34375 129.5891 198.12873 131.73242 196.41406 C 131.94676 196.19968 132.3716 195.98633 132.58594 195.98633 C 134.08627 195.98633 134.73047 197.2728 134.73047 200.27344 C 134.9448 202.84544 135.15992 203.48594 137.51758 218.06055 C 137.73196 219.77522 137.94531 221.27693 137.94531 221.91992 C 137.94531 223.42025 137.08975 224.49023 136.23242 224.49023 C 134.94642 224.49023 134.51698 223.8512 133.44531 220.42188 C 129.373 207.77626 114.79666 198.55664 99.150391 198.55664 C 86.076111 198.55664 76.646484 206.91824 76.646484 218.49219 C 76.646484 223.63617 78.361696 228.13421 81.791016 231.99219 C 86.720666 237.35049 87.793826 237.99734 109.44141 245.07031 C 131.08899 252.14328 141.5918 263.71608 141.5918 279.79102 C 141.5918 301.65293 124.01347 317.29883 99.365234 317.29883 C 89.505944 317.29883 76.21973 314.08362 71.71875 310.6543 C 70.00409 309.15397 69.789896 308.93777 68.503906 302.50781 C 68.503906 302.07914 67.647318 299.08106 66.361328 294.58008 C 64.860998 289.86477 64 284.9334 64 283.21875 C 64 281.71842 64.858028 280.64844 65.929688 280.64844 C 66.787028 280.64844 67.217814 281.28966 67.646484 282.36133 C 70.432794 290.50596 73.647971 295.86282 78.363281 300.57812 C 84.578931 306.79378 94.651915 310.6543 104.29688 310.6543 C 120.15747 310.6543 133.01758 299.72365 133.01758 286.2207 C 133.01758 279.57639 129.80311 273.36036 124.23047 268.85938 C 121.01548 266.50171 118.01347 265.00192 102.36719 260.07227 C 87.363928 254.92829 80.934904 251.49884 74.933594 245.2832 C 69.575284 239.71055 66.787109 232.8492 66.787109 224.49023 C 66.787109 205.84331 82.435057 192.55859 105.1543 192.55859 z M 175.24023 192.98633 C 183.17053 192.98633 185.31369 193.41411 196.45898 198.34375 C 197.31631 198.55814 197.74712 198.77148 198.17578 198.77148 C 199.24744 198.77148 199.46021 198.56035 201.60352 196.8457 C 201.81786 196.63136 202.03422 196.41406 202.46289 196.41406 C 203.96321 196.41406 204.60547 197.70052 204.60547 200.70117 C 204.8198 203.27316 205.03101 203.91757 207.38867 218.49219 C 207.60301 220.42117 207.82031 221.70467 207.82031 222.34766 C 207.82031 223.84799 206.96086 224.92188 206.10352 224.92188 C 205.03186 224.92188 204.38807 224.27698 203.31641 220.84766 C 199.02976 208.20205 184.6697 198.98828 169.02344 198.98828 C 155.94915 198.98828 146.51758 207.12969 146.51758 218.91797 C 146.51758 224.06195 148.2328 228.56585 151.66211 232.42383 C 156.37742 237.78215 157.45058 238.20879 179.3125 245.49609 C 200.96008 252.78339 211.67876 264.14475 212.10742 279.79102 C 212.10742 301.65294 194.31476 317.29883 169.88086 317.29883 C 160.02157 317.29883 146.73145 314.08361 142.23047 310.6543 C 140.51581 309.3683 140.30163 308.94076 139.01562 302.93945 C 140.73029 300.36746 142.23548 297.36785 143.52148 294.36719 C 145.0218 296.72485 146.73312 298.86789 148.66211 300.79688 C 154.87776 307.01252 164.95465 310.86914 174.59961 310.86914 C 190.46021 310.86914 203.31641 299.93655 203.31641 286.43359 C 203.31641 279.78929 200.10195 273.36087 194.5293 269.07422 C 191.31432 266.71657 188.10187 265.43109 172.66992 260.28711 C 157.66666 255.14314 151.23373 251.71173 145.23242 245.49609 C 140.5171 240.78077 137.73284 234.99391 137.08984 228.34961 C 139.87616 227.70661 142.01758 225.13635 142.01758 221.70703 C 142.01758 221.27837 142.01903 220.41881 141.80469 219.13281 L 140.51953 210.3457 C 146.30651 199.62908 158.95096 192.98633 175.24023 192.98633 z M 237.39648 195.3418 C 251.11376 195.34179 259.90309 197.48689 266.76172 202.63086 C 273.62037 207.77484 277.47852 216.13188 277.47852 225.5625 C 277.47852 238.63679 269.75922 248.92559 255.61328 256.21289 L 280.04883 291.79102 C 290.97979 308.50895 297.19776 313.65377 306.41406 313.43945 C 307.27139 313.43945 307.91211 314.08552 307.91211 314.72852 C 307.91211 316.44318 301.90849 318.15625 295.47852 318.15625 C 284.7619 318.15625 277.0474 313.01076 268.25977 299.50781 L 246.61328 266.28516 C 246.61328 266.07083 246.18597 265.43104 245.54297 264.35938 C 243.61397 261.35872 242.53962 260.71289 238.68164 260.71289 L 229.03516 260.71289 C 224.53419 260.49855 224.10886 260.92709 223.89453 263.92773 L 223.89453 290.93359 L 223.89453 295.65234 C 223.46586 307.86929 227.53942 312.37025 239.9707 313.65625 C 242.11402 313.87059 243.18555 314.51037 243.18555 315.58203 C 243.18555 316.6537 241.8968 317.29883 240.39648 317.29883 C 239.32482 317.29883 237.39672 317.08542 235.03906 316.87109 C 232.89574 316.44243 223.68124 316.22656 215.32227 316.22656 C 211.03562 316.22656 206.53386 316.44243 203.5332 316.87109 C 201.81855 317.08547 199.6723 317.29883 199.0293 317.29883 C 197.31464 317.29883 196.67188 316.86803 196.67188 315.58203 C 196.67188 314.51037 197.10175 314.29781 198.81641 313.86914 C 205.88938 311.72582 208.67443 309.79799 209.74609 302.08203 C 213.81841 295.86638 216.17578 288.36287 216.17578 280.00391 C 216.17578 272.71659 214.24862 266.28554 210.39062 260.71289 L 210.39062 228.56445 L 210.39062 227.06445 C 211.67662 225.77846 212.32031 224.06376 212.32031 222.13477 C 212.32031 221.70611 212.32176 220.85045 212.10742 219.56445 L 210.60352 210.13281 C 209.31749 203.05985 209.3198 202.20099 209.10547 200.48633 C 209.10547 198.77167 208.8896 197.48572 208.46094 196.41406 L 210.17773 196.41406 C 214.67872 196.41406 214.67732 196.41644 224.32227 195.77344 C 228.82326 195.55911 233.32416 195.3418 237.39648 195.3418 z M 381.42969 196.8457 C 382.93002 196.8457 384 197.69983 384 198.77148 C 384 199.62882 383.5692 200.05911 382.2832 200.27344 C 374.13856 202.41677 373.28177 204.56039 373.49609 225.7793 L 373.2832 231.35156 L 373.2832 288.36328 C 373.2832 299.50858 373.28464 307.44 373.07031 312.58398 L 373.07031 314.29688 C 373.07031 318.15487 372.42458 319.44141 370.28125 319.44141 C 368.99526 319.44141 368.99531 319.44154 366.20898 316.22656 L 292.26367 231.35156 C 291.192 230.27988 290.97843 230.06641 290.12109 230.06641 C 288.8351 230.06641 288.4082 230.92121 288.4082 233.92188 L 288.4082 293.50781 L 288.4082 296.72266 C 286.90788 294.57934 285.40555 292.22188 283.47656 289.43555 L 281.33398 286.2207 L 281.33398 234.35352 L 281.33398 230.49414 C 281.54832 228.99381 281.76562 227.27716 281.76562 225.5625 C 281.76562 214.84588 277.048 204.98815 269.33203 199.20117 C 268.26037 198.55818 267.18885 197.70159 266.11719 197.05859 C 268.68918 197.2727 272.54595 197.27148 272.97461 197.27148 L 274.47656 197.27148 C 275.76255 197.05737 276.83552 197.05859 277.47852 197.05859 C 279.40751 197.05859 280.47675 197.69993 282.19141 199.62891 L 362.78125 291.36523 C 364.06724 292.86555 364.70805 293.50781 365.13672 293.50781 C 365.99405 293.72215 366.20898 293.07929 366.20898 290.29297 L 366.20898 248.28516 C 366.63765 207.34765 365.13979 203.48852 348.42188 201.13086 C 346.49288 200.7022 345.84766 200.05748 345.84766 198.77148 C 345.84766 197.69982 346.7072 197.05859 348.42188 197.05859 L 352.27734 197.27148 C 355.49233 197.4858 364.06696 197.91602 369.21094 197.91602 C 372.8546 197.91602 374.99926 197.70013 377.14258 197.27148 C 379.07157 197.05709 380.35803 196.8457 381.42969 196.8457 z M 232.68164 201.3457 C 228.60933 201.3457 226.03599 202.41425 224.75 204.12891 C 223.67833 205.62925 223.67773 206.27408 223.67773 212.27539 L 223.67773 247.85352 C 223.67773 253.42616 224.10756 253.85597 229.89453 254.07031 L 239.75195 254.07031 C 255.18389 254.07031 264.40039 245.06874 264.40039 230.49414 C 264.40039 222.3495 260.75862 213.77679 254.54297 208.63281 C 249.61332 204.13183 240.82628 201.3457 232.68164 201.3457 z"/></svg>

<svg xmlns="http://www.w3.org/2000/svg" width="100%" height="100%" viewBox="-75.52 -43.52 599.04 599.04"><path d="M48 32C21.5 32 0 53.5 0 80v352c0 26.5 21.5 48 48 48h352c26.5 0 48-21.5 48-48V80c0-26.5-21.5-48-48-48H48zm57.154 160.559c8.145 0 10.074.642 21.434 5.357.643.214 1.282.428 1.71.428 1.072 0 1.291-.215 3.434-1.93.215-.214.64-.428.854-.428 1.5 0 2.144 1.287 2.144 4.287.215 2.572.43 3.213 2.788 17.788.214 1.714.427 3.216.427 3.859 0 1.5-.855 2.57-1.713 2.57-1.286 0-1.715-.639-2.787-4.068-4.072-12.646-18.648-21.865-34.295-21.865-13.074 0-22.504 8.361-22.504 19.935 0 5.144 1.716 9.642 5.145 13.5 4.93 5.358 6.003 6.005 27.65 13.078 21.648 7.073 32.15 18.646 32.15 34.721 0 21.862-17.578 37.508-42.226 37.508-9.86 0-23.145-3.215-27.646-6.645-1.715-1.5-1.93-1.716-3.215-8.146 0-.429-.857-3.427-2.143-7.928-1.5-4.715-2.361-9.647-2.361-11.361 0-1.5.858-2.57 1.93-2.57.857 0 1.288.64 1.716 1.712 2.787 8.145 6.002 13.502 10.717 18.217 6.216 6.216 16.289 10.076 25.934 10.076 15.86 0 28.72-10.93 28.72-24.433 0-6.645-3.214-12.86-8.787-17.362-3.215-2.357-6.217-3.857-21.863-8.787-15.003-5.144-21.432-8.573-27.433-14.789-5.359-5.572-8.147-12.434-8.147-20.793 0-18.647 15.648-31.931 38.367-31.931zm70.086.427c7.93 0 10.074.428 21.219 5.358.857.214 1.288.427 1.717.427 1.071 0 1.284-.21 3.428-1.925.214-.215.43-.432.859-.432 1.5 0 2.142 1.287 2.142 4.287.215 2.572.426 3.217 2.784 17.791.214 1.93.431 3.213.431 3.856 0 1.5-.86 2.574-1.716 2.574-1.072 0-1.716-.645-2.788-4.074-4.286-12.646-18.646-21.86-34.293-21.86-13.074 0-22.505 8.142-22.505 19.93 0 5.144 1.715 9.648 5.144 13.506 4.715 5.358 5.789 5.785 27.65 13.072 21.648 7.287 32.367 18.649 32.795 34.295 0 21.862-17.792 37.508-42.226 37.508-9.86 0-23.15-3.215-27.65-6.645-1.715-1.286-1.93-1.713-3.215-7.715 1.714-2.572 3.22-5.571 4.505-8.572 1.5 2.358 3.212 4.5 5.141 6.43 6.216 6.216 16.293 10.072 25.938 10.072 15.86 0 28.716-10.932 28.716-24.435 0-6.645-3.214-13.073-8.787-17.36-3.215-2.357-6.427-3.643-21.86-8.787-15.002-5.144-21.435-8.575-27.437-14.79-4.715-4.716-7.5-10.503-8.142-17.147 2.786-.643 4.928-3.214 4.928-6.643 0-.429.001-1.288-.213-2.574l-1.285-8.787c5.787-10.717 18.431-17.36 34.72-17.36zm62.156 2.356c13.718 0 22.507 2.145 29.366 7.289 6.858 5.144 10.717 13.5 10.717 22.931 0 13.075-7.72 23.364-21.866 30.65l24.436 35.579c10.93 16.718 17.149 21.863 26.365 21.648.857 0 1.498.647 1.498 1.29 0 1.714-6.004 3.427-12.433 3.427-10.717 0-18.432-5.145-27.22-18.648l-21.646-33.223c0-.214-.427-.854-1.07-1.926-1.929-3-3.003-3.646-6.861-3.646h-9.647c-4.5-.214-4.926.214-5.14 3.215v31.724c-.43 12.217 3.644 16.718 16.076 18.004 2.143.215 3.215.854 3.215 1.926s-1.29 1.717-2.79 1.717c-1.071 0-3-.214-5.357-.428-2.143-.429-11.358-.644-19.717-.644-4.286 0-8.788.215-11.789.644-1.714.214-3.86.428-4.504.428-1.714 0-2.357-.431-2.357-1.717 0-1.072.43-1.284 2.144-1.713 7.073-2.143 9.858-4.071 10.93-11.787 4.072-6.216 6.43-13.72 6.43-22.078 0-7.287-1.927-13.718-5.785-19.291v-33.649c1.286-1.286 1.93-3 1.93-4.93 0-.428 0-1.284-.214-2.57l-1.503-9.431c-1.287-7.073-1.284-7.932-1.499-9.647 0-1.714-.215-3-.644-4.072h1.717c4.5 0 4.5.002 14.144-.64 4.501-.215 9.002-.432 13.074-.432zm144.034 1.504c1.5 0 2.57.854 2.57 1.925 0 .858-.43 1.288-1.717 1.502-8.144 2.144-9.001 4.287-8.787 25.506l-.213 5.573v57.011c0 11.146.002 19.077-.213 24.221v1.713c0 3.858-.645 5.144-2.789 5.144-1.286 0-1.286 0-4.072-3.214l-73.945-84.875c-1.072-1.072-1.286-1.286-2.143-1.286-1.286 0-1.713.855-1.713 3.856v62.801c-1.5-2.144-3.002-4.501-4.931-7.287l-2.143-3.215v-55.727c.214-1.5.432-3.217.432-4.931 0-10.717-4.718-20.575-12.434-26.362-1.072-.643-2.143-1.5-3.215-2.142 2.572.214 6.429.212 6.858.212h1.502c1.286-.214 2.359-.212 3.002-.212 1.929 0 2.998.64 4.712 2.57l80.59 91.736c1.286 1.5 1.927 2.143 2.356 2.143.857.214 1.072-.429 1.072-3.215v-42.008c.429-40.937-1.07-44.796-17.787-47.154-1.93-.429-2.574-1.074-2.574-2.36 0-1.071.86-1.712 2.574-1.712l3.855.212c3.215.215 11.79.645 16.934.645 3.644 0 5.788-.216 7.932-.645 1.929-.214 3.215-.425 4.287-.425zm-148.748 4.5c-4.073 0-6.646 1.068-7.932 2.783-1.072 1.5-1.072 2.145-1.072 8.146v35.579c0 5.572.43 6.002 6.217 6.216h9.857c15.432 0 24.648-9.001 24.648-23.576 0-8.144-3.641-16.717-9.857-21.861-4.93-4.501-13.717-7.287-21.861-7.287z"/></svg>
